X: 27030
T: Miss Grace Hay's
R: jig
M: 6/8
K: Gmajor
|:D|GFG DB,D|~G3 D2B|A2B c2B|ABG FED|
~G3 DB,D|ECD EFG|AcB AGF|~G3 G2:|
|:A|BGB dBG|~c3 ecA|BGd cAf|gBc ~B2A|
GFG DB,D|ECD EFG|AcB AGF|~G3 G2:|

